input/templates/squircle/shadow.svg

<svg xmlns="http://www.w3.org/2000/svg" width="48" height="48">
 <path d="M 1,31.5 1,32 c 0,8.864 7.136,16 16,16 l 14,0 c 8.864,0 16,-7.136 16,-16 l 0,-0.5 c 0,8.864 -7.136,16 -16,16 l -14,0 C 8.136,47.5 1,40.364 1,31.5 z" opacity="0.03"/>
 <path d="M 1.09375,32.875 C 1.7946687,41.082404 8.605052,47.5 17,47.5 l 14,0 c 8.394948,0 15.205331,-6.417596 15.90625,-14.625 C 46.089805,40.962695 39.31,47.25 31,47.25 l -14,0 C 8.69,47.25 1.9101953,40.962695 1.09375,32.875 z" opacity="0.06"/>
 <path d="M 1.09375,32.625 C 1.7946687,40.832404 8.605052,47.25 17,47.25 l 14,0 c 8.394948,0 15.205331,-6.417596 15.90625,-14.625 C 46.089805,40.712695 39.31,47 31,47 L 17,47 C 8.69,47 1.9101953,40.712695 1.09375,32.625 z" opacity="0.12"/>
 <path d="M 1,16.5 1,16 C 1,7.136 8.136,0 17,0 l 14,0 c 8.864,0 16,7.136 16,16 l 0,0.5 C 47,7.636 39.864,0.5 31,0.5 l -14,0 C 8.136,0.5 1,7.636 1,16.5 z" opacity="0.03"/>
 <path d="M 1.09375,15.125 C 1.7946687,6.917596 8.605052,0.5 17,0.5 l 14,0 c 8.394948,0 15.205331,6.417596 15.90625,14.625 C 46.089805,7.037305 39.31,0.75 31,0.75 l -14,0 C 8.69,0.75 1.9101953,7.037305 1.09375,15.125 z" opacity="0.06"/>
 <path d="M 1.09375,15.375 C 1.7946687,7.167596 8.605052,0.75 17,0.75 l 14,0 c 8.394948,0 15.205331,6.417596 15.90625,14.625 C 46.089805,7.287305 39.31,1 31,1 L 17,1 C 8.69,1 1.9101953,7.287305 1.09375,15.375 z" opacity="0.12"/>
</svg>

<svg xmlns="http://www.w3.org/2000/svg" viewBox="0 0 48 48"><path d="M 1,31.5 1,32 c 0,8.864 7.136,16 16,16 l 14,0 c 8.864,0 16,-7.136 16,-16 l 0,-0.5 c 0,8.864 -7.136,16 -16,16 l -14,0 C 8.136,47.5 1,40.364 1,31.5 z" opacity="0.03"/><path d="m 1.094 32.875 c 0.701 8.207 7.511 14.625 15.906 14.625 l 14 0 c 8.395 0 15.205 -6.418 15.906 -14.625 c -0.816 8.09 -7.596 14.375 -15.906 14.375 l -14 0 c -8.31 0 -15.09 -6.287 -15.906 -14.375 z" opacity="0.06"/><path d="m 1.094 32.625 c 0.701 8.207 7.511 14.625 15.906 14.625 l 14 0 c 8.395 0 15.205 -6.418 15.906 -14.625 c -0.816 8.09 -7.596 14.375 -15.906 14.375 l -14 0 c -8.31 0 -15.09 -6.287 -15.906 -14.375 z" opacity="0.12"/><path d="M 1,16.5 1,16 C 1,7.136 8.136,0 17,0 l 14,0 c 8.864,0 16,7.136 16,16 l 0,0.5 C 47,7.636 39.864,0.5 31,0.5 l -14,0 C 8.136,0.5 1,7.636 1,16.5 z" opacity="0.03"/><path d="m 1.094 15.13 c 0.701 -8.207 7.511 -14.625 15.906 -14.625 l 14 0 c 8.395 0 15.205 6.418 15.906 14.625 c -0.816 -8.09 -7.596 -14.375 -15.906 -14.375 l -14 0 c -8.31 0 -15.09 6.287 -15.906 14.375 z" opacity="0.06"/><path d="m 1.094 15.375 c 0.701 -8.207 7.511 -14.625 15.906 -14.625 l 14 0 c 8.395 0 15.205 6.418 15.906 14.625 c -0.816 -8.09 -7.596 -14.375 -15.906 -14.375 l -14 0 c -8.31 0 -15.09 6.287 -15.906 14.375 z" opacity="0.12"/><rect rx="16" y="1" x="1" height="46" width="46" fill="#f3f3f3"/></svg>
